X: 23710
T: Lisnagun, The
R: jig
M: 6/8
K: Amajor
AFE ~A3|Bce c3|Bce cBA|BAF AFE|
AFE ~A3|Bce c3|Bce cBA|1 BAF A3:|2 BAF ABd||
e2d cBA|Bce cBA|ece cBA|BAF AFE|
~e3 cBA|Bce cBA|ece cBA|BAF A3|
~e3 cBA|Bce cBA|ece cBA|BAF AFE|
AFE ~A3|Bce c3|Bce cBA|BAF A3:|

